X: 1
T: Doberman's Wallet
M: 6/8
L: 1/8
R: jig
K: Dmaj
A2 F EDE|~F2 D DFA|ded ~B2 A|FED EFG|
~A2 F EDE|FDD DFA|dcd BdA|1FDD D2 B:|2FDD DFA||
d2 d cBA|Bcd ~e2 d|c2 A BAB|c.A.A ABc|
ded cBA|Bcd edB|A{B}AF EDE|FDD DFA|
d2 B {d}cBA|Bcd ~e2 d|c{d}cA ~B3|cAA ~A2 e|
fed cBA|Bcd AGF|GAB ABc|dAF EFG||F4z2|]
